icons/plantation_worker_fill.svg

<svg width="48" height="48" viewBox="0 0 48 48" fill="none" xmlns="http://www.w3.org/2000/svg">
<path fill-rule="evenodd" clip-rule="evenodd" d="M34 16C34 21.5228 29.5228 26 24 26C18.4772 26 14 21.5228 14 16C14 10.4772 18.4772 6 24 6C29.5228 6 34 10.4772 34 16ZM32 16C32 20.4183 28.4183 24 24 24C19.5817 24 16 20.4183 16 16C16 11.5817 19.5817 8 24 8C28.4183 8 32 11.5817 32 16Z" fill="black"/>
<path d="M38.9999 24C38.9999 25.5326 37.8725 26.6894 36.9999 27.3551V29.7012C37.1293 29.5821 37.2747 29.4753 37.4381 29.3839C38.8214 28.6105 40.6012 29.1839 41.4722 29.5559C41.805 29.698 42.0007 30.0324 41.9601 30.3919C41.8574 31.3007 41.49 33.0122 40.1751 33.6232C39.085 34.1297 37.832 34.031 36.9999 33.8694V35.7012C37.1293 35.5821 37.2747 35.4753 37.4381 35.3839C38.8214 34.6105 40.6012 35.1839 41.4722 35.5559C41.805 35.698 42.0007 36.0324 41.9601 36.3919C41.8574 37.3007 41.49 39.0122 40.1751 39.6232C39.085 40.1297 37.832 40.031 36.9999 39.8694V41C36.9999 41.5523 36.5522 42 35.9999 42C35.4476 42 34.9999 41.5523 34.9999 41V39.8694C34.1678 40.031 32.9148 40.1297 31.8247 39.6232C30.5098 39.0122 30.1424 37.3007 30.0397 36.3919C29.9991 36.0324 30.1949 35.698 30.5276 35.5559C31.3986 35.1839 33.1784 34.6105 34.5617 35.3839C34.7251 35.4753 34.8706 35.5821 34.9999 35.7012V33.8694C34.1678 34.031 32.9148 34.1297 31.8247 33.6232C30.5098 33.0122 30.1424 31.3007 30.0397 30.3919C29.9991 30.0324 30.1949 29.698 30.5276 29.5559C31.3986 29.1839 33.1784 28.6105 34.5617 29.3839C34.7251 29.4753 34.8706 29.5821 34.9999 29.7012V27.3551C34.1274 26.6894 32.9999 25.5326 32.9999 24C32.9999 22.0969 34.7384 20.7733 35.5685 20.2497C35.8348 20.0818 36.1651 20.0818 36.4313 20.2497C37.2614 20.7733 38.9999 22.0969 38.9999 24Z" fill="black"/>
<path d="M6 35.5383C6 32.303 9.68906 30.3375 14 29.2286V34.9999H13C12.4477 34.9999 12 35.4476 12 35.9999V41.9998H6V35.5383Z" fill="black"/>
<path d="M24 35.9999C20.5 35.9999 18 34.9999 18 34.9999H16V28.7804C17.3478 28.5194 18.7099 28.3318 20 28.2061V29.9998C20 31.1044 20.8954 31.9998 22 31.9998H26C26.5323 31.9998 27.016 31.7919 27.3744 31.4528C27.4066 31.5621 27.4415 31.6748 27.4794 31.7898C27.6381 32.2719 27.8735 32.873 28.2199 33.459C28.3003 33.5952 28.394 33.7428 28.5024 33.896C27.7961 34.3024 27.2952 34.9741 27.0957 35.7432C26.21 35.89 25.1599 35.9999 24 35.9999Z" fill="black"/>
<path d="M24 37.9999C25.1834 37.9999 26.2622 37.8968 27.191 37.7534C27.2586 38.0459 27.3526 38.4048 27.4794 38.7898C27.5967 39.1462 27.7559 39.5676 27.9709 39.9999H14V36.9999H17.6514C17.7053 37.0182 17.7643 37.0378 17.8283 37.0586C18.1639 37.1674 18.639 37.3078 19.2294 37.4467C20.4068 37.7237 22.0634 37.9999 24 37.9999Z" fill="black"/>
</svg>

<svg
  xmlns="http://www.w3.org/2000/svg"
  width="24"
  height="24"
  viewBox="0 0 24 24"
  fill="none"
  stroke="currentColor"
  stroke-width="2"
  stroke-linecap="round"
  stroke-linejoin="round"
>
  <path
    fill-rule="evenodd"
    d="M34 16c0 5.523-4.477 10-10 10s-10-4.477-10-10S18.477 6 24 6s10 4.477 10 10m-2 0a8 8 0 1 1-16 0 8 8 0 0 1 16 0"
    clip-rule="evenodd"
  />
  <path d="M39 24c0 1.533-1.127 2.69-2 3.355v2.346q.194-.18.438-.317c1.383-.774 3.163-.2 4.034.172a.804.804 0 0 1 .488.836c-.103.909-.47 2.62-1.785 3.231-1.09.507-2.343.408-3.175.246v1.832q.194-.18.438-.317c1.383-.773 3.163-.2 4.034.172a.804.804 0 0 1 .488.836c-.103.909-.47 2.62-1.785 3.231-1.09.507-2.343.408-3.175.246V41a1 1 0 1 1-2 0v-1.13c-.832.161-2.085.26-3.175-.247-1.315-.61-1.683-2.322-1.785-3.231a.804.804 0 0 1 .488-.836c.87-.372 2.65-.945 4.034-.172q.244.138.438.317V33.87c-.832.162-2.085.26-3.175-.246-1.315-.61-1.683-2.322-1.785-3.231a.804.804 0 0 1 .488-.836c.87-.372 2.65-.946 4.034-.172q.244.137.438.317v-2.346c-.873-.666-2-1.822-2-3.355 0-1.903 1.738-3.227 2.569-3.75a.8.8 0 0 1 .862 0C37.261 20.773 39 22.097 39 24" />
  <path d="M6 35.538c0-3.235 3.69-5.2 8-6.31V35h-1a1 1 0 0 0-1 1v6H6z" />
  <path d="M24 36c-3.5 0-6-1-6-1h-2v-6.22a43 43 0 0 1 4-.574V30a2 2 0 0 0 2 2h4c.532 0 1.016-.208 1.374-.547q.05.165.105.337a8.6 8.6 0 0 0 .74 1.669q.121.206.283.437a3 3 0 0 0-1.406 1.847C26.21 35.89 25.16 36 24 36" />
  <path d="M24 38c1.183 0 2.262-.103 3.191-.247.068.293.162.652.288 1.037.118.356.277.778.492 1.21H14v-3h3.651l.177.059c.336.108.811.249 1.401.388 1.178.277 2.834.553 4.771.553" />
</svg>
